icons/svg/24x24/print/filled.svg

<svg width="24" height="24" fill="none" xmlns="http://www.w3.org/2000/svg">
  <path fill-rule="evenodd" clip-rule="evenodd" d="M16 19H8v-3h8v3zM7 9h10V5H7v4zm12 0V4a1 1 0 00-1-1H6a1 1 0 00-1 1v5c-1.654 0-3 1.346-3 3v3c0 1.654 1.346 3 3 3h1v2a1 1 0 001 1h10a1 1 0 001-1v-2h1c1.654 0 3-1.346 3-3v-3c0-1.654-1.346-3-3-3z" fill="#000"/>
</svg>

<svg xmlns="http://www.w3.org/2000/svg" width="24" height="24" viewBox="0 0 24 24">
  <path fill-rule="evenodd" d="M16,19 L8,19 L8,17 L8,16 L16,16 L16,17 L16,19 Z M7,9 L17,9 L17,5 L7,5 L7,9 Z M19,9 L19,4 C19,3.447 18.553,3 18,3 L6,3 C5.447,3 5,3.447 5,4 L5,9 C3.346,9 2,10.346 2,12 L2,15 C2,16.654 3.346,18 5,18 L6,18 L6,20 C6,20.553 6.447,21 7,21 L17,21 C17.553,21 18,20.553 18,20 L18,18 L19,18 C20.654,18 22,16.654 22,15 L22,12 C22,10.346 20.654,9 19,9 L19,9 Z"/>
</svg>
